!!!!SEGMENT: pl-kk--kk-i-389--001-001_kottritsch-franciszek--missa-no-1-rorate.krn
!!!cenid: 17xx:2452
!!!COM: Kottritsch, Franciszek
!!!COM-rismID: pe30040598
!!!CDT: ~1727-1787
!!!CNT:
!!!OPR: [Missa] No. 1.
!!!OTL: Rorate
!!!OMV: 001
!!!PDT:
!!!AGN: Sacred; Mass
!!!YEC: Copyright 2022 Narodowy Instytut Fryderyka Chopina (https://polishscores.org)
!!!YEM: License CC-BY-4.0 (https://creativecommons.org/licenses/by/4.0)
!!!SMS-siglum: PL-Kk
!!!SMS-shelfmark: Kk.I.389
!!!SMS-variant:
!!!SMS-altvar:
!!!SMS-shelfwork: 001-001 M
!!!NIFC-rismSourceID: 1001146182
!!!NIFC-rismChildID: 1001146200
!!!NIFC-islandoraID: pl-kk:6976
!!!URL-pdf-islandora: https://repozytorium.nifc.pl/islandora/object/pl-kk%3A6976/datastream/PDF/view
!!!URL-scan: https://polish.musicsources.pl/pl/lokalizacje/galeria/rekopisy/5999/1 @EN{Scan on Polish Music Sources Website} @PL{Skany w portalu Dziedzictwo Muzyki Polskiej w otwartym dostępie}
!!!IIIF:
!!!ONB-nifc: UWAGA: S – skan 1-3, A – 20-22, T – 39-41 , B – 58-60. Części Mszy: Rorate, Kyrie, Gloria, Graduale, Sanctus, Benedictus, Agnus, Dona.
!!!OMD: Lente.
!!!AIN: 1 alto 1 bass 1 soprn 1 tenor
!!!key: E-
**kern	**text	**kern	**text	**kern	**text	**kern	**text
*part4	*part4	*part3	*part3	*part2	*part2	*part1	*part1
*staff4	*staff4	*staff3	*staff3	*staff2	*staff2	*staff1	*staff1
*ICvox	*	*ICvox	*	*ICvox	*	*ICvox	*
*Ibass	*	*Itenor	*	*Ialto	*	*Isoprn	*
*I"Basso.	*	*I"Tenore.	*	*I"Alto.	*	*I"Soprano.	*
*I'B	*	*I'T	*	*I'A	*	*I'S	*
*clefF4	*	*clefC4	*	*clefC3	*	*clefC1	*
*k[b-e-a-]	*	*k[b-e-a-]	*	*k[b-e-a-]	*	*k[b-e-a-]	*
*E-:	*	*E-:	*	*E-:	*	*E-:	*
*M2/2	*	*M2/2	*	*M2/2	*	*M2/2	*
*met(C|)	*	*met(C|)	*	*met(C|)	*	*met(C|)	*
=1	=1	=1	=1	=1	=1	=1	=1
!!LO:TX:t=P:problem:all\right:global
!	!	!	!	!	!	!LO:TX:a:t=3.	!
!LO:TX:a:t=Lente.	!	!LO:TX:a:t=1.	!	!LO:TX:a:t=2	!	!	!
4r	.	1r	.	0r	.	0r	.
*4\right	*	*	*	*	*	*	*
4E-\	Ro-	.	.	.	.	.	.
4E-\	-ra-	.	.	.	.	.	.
4E-\	-te	.	.	.	.	.	.
=2	=2	=2	=2	=2	=2	=2	=2
2D/	ce-	4r	.	.	.	.	.
*	*	*4\right	*	*	*	*	*
.	.	4B-\	Ro-	.	.	.	.
2BB-/	-li	4B-\	-ra-	.	.	.	.
.	.	4B-\	-te	.	.	.	.
=3	=3	=3	=3	=3	=3	=3	=3
4E-\	de-	2G/	ce-	4r	.	1r	.
*	*	*	*	*4\right	*	*	*
4F\	.	.	.	4e-X\	Ro-	.	.
4G\	.	2E-/	-li	4e-\	-ra-	.	.
4A-\	-su-	.	.	4e-\	-te	.	.
=4	=4	=4	=4	=4	=4	=4	=4
*	*	*	*	*2\right	*	*	*
4B-\	-per	4.F/	de-	2d\	ce-	4r	.
*	*	*	*	*	*	*4\right	*
4F\	ro-	.	.	.	.	4b-\	Ro-
.	.	8F/	-su-	.	.	.	.
4B-\	-ra-	4F/	-per,	2B-/	-li	4b-\	-ra-
4A-\	-te	4F/	et	.	.	4b-\	-te
!LO:LB:g=original	!	!	!	!	!	!	!
=5	=5	=5	=5	=5	=5	=5	=5
4G\	ce-	(4B-\	nu-	4e-\	ce-	(4b-\	ce-
4F\	.	4A-\)	.	4f\	.	4dd\)	.
*2\right	*	*	*	*	*	*2\right	*
2E-\	-li	(4G\	-bes	2g\	-li	2ee-\	-li
.	.	4B-\)	.	.	.	.	.
!	!	!LO:LB:g=original	!	!	!	!	!
=6	=6	=6	=6	=6	=6	=6	=6
*	*	*2\right	*	*	*	*	*
4E-\	de-	2.A-X\	plu-	2.f\	de-	(4cc\	de-
*	*	*	*	*	*	*8\right	*
8D/L	.	.	.	.	.	8dd\L	.
8C/J	.	.	.	.	.	8ee-\J	.
4D\	.	.	.	.	.	4ff\)	.
4D\	-su-	4B-\	-ant,	4f\	-su-	4ff\	-su-
!	!	!	!	!LO:LB:g=original	!	!LO:LB:g=original	!
=7	=7	=7	=7	=7	=7	=7	=7
4E-\	-per,	(4G/	et	4e-\	-per,	4ee-\	-per,
4E-\	et	4B-\)	.	4g\	et	4b-\	et
4E-\	nu-	4B-\	nu-	4g\	nu-	4g\	nu-
4D\	-bes	4Bn\	-bes	4f\	-bes	4dd\	-bes
=8	=8	=8	=8	=8	=8	=8	=8
4C/	plu-	4c\	plu-	4e-\	plu-	4ee-\	plu-
*	*	*8\right	*	*	*	*	*
4D\	.	8Bn\L	.	4f\	-an	4dd\	-ant
.	.	8An\J	.	.	.	.	.
4E-\	-ant	4G/	.	4g\	ju-	2cc\	jus-
*	*	*	*	*8\right	*	*	*
4F\	.	4A/	.	8f\L	.	.	.
.	.	.	.	8e-\J	.	.	.
=9	=9	=9	=9	=9	=9	=9	=9
4G\	jus-	2Bn\	-ant	2d\	-stum	4bn\	-tum,
4G\	-tum	.	.	.	.	4g\	et
4E-\	nu-	4c\	nu-	4g\	nu-	4cc\	nu-
4C/	-bes	4e-X\	-bes	4g\	-bes	4cc\	-bes
=10	=10	=10	=10	=10	=10	=10	=10
4A-\	plu-	4c\	plu-	4e-\	plu-	4cc\	plu-
4F\	-ant	4d\	-an	4f\	-an	4a-X\	-ant
(4G\	ju-	2Bn\	jus-	2d\	jus-	2g\	jus-
4GG/)	.	.	.	.	.	.	.
!LO:LB:g=original	!	!	!	!	!	!	!
=11	=11	=11	=11	=11	=11	=11	=11
4C/	-stum	4c\	-tum	4c\	-tum	4g\	-tum.
4r	.	4r	.	4c\	a-	4r	.
2r	.	4r	.	4g\	-pe-	2r	.
.	.	4G/	a-	4g\	-ri-	.	.
!	!	!LO:LB:g=original	!	!	!	!	!
=12	=12	=12	=12	=12	=12	=12	=12
!	!	!	!	!	!	!LO:TX:a:t=1.	!
2r	.	4c\	-pe-	4e-\	-a-	1r	.
.	.	4c\	-ri-	4e-\	-tur	.	.
4r	.	4c\	-a-	2e-\	ter-	.	.
4C/	a-	4c\	-tur	.	.	.	.
!	!	!	!	!LO:LB:g=original	!	!LO:LB:g=original	!
=13	=13	=13	=13	=13	=13	=13	=13
4G\	-pe-	4c\	ter-	4d\	-ra,	2r	.
4G\	-ri-	8Bn\L	.	4d\	a-	.	.
.	.	8An\J	.	.	.	.	.
4G\	-a-	[2B\	.	4d\	-pe-	4r	.
4F\	-tur	.	.	4d\	-ri-	4g\	a-
=14	=14	=14	=14	=14	=14	=14	=14
2En\	ter-	4B\]	.	2.c\	-a-	4cc\	-pe-
.	.	8A-X\L	.	.	.	4cc\	-ri-
.	.	8G\J	.	.	.	.	.
2F\	.	2A-\	.	.	.	4cc\	-a-
.	.	.	.	4d\	-tur	4a-X\	-tur
=15	=15	=15	=15	=15	=15	=15	=15
4C/	.	2.G/	.	4e-\	ter-	4g\	ter-
4BB-/	.	.	.	4d\	.	4dd\	.
2AA-/	.	.	.	4c\	.	4ee-\	.
.	.	4F/	.	4d\	.	4cc\	.
=16	=16	=16	=16	=16	=16	=16	=16
2GG/	-ra	2G/	-ra,	2Bn/	-ra,	2dd\	-ra,
2E-\	et	4B-\	et	2g\	et	2ee-\	et
.	.	4c\	.	.	.	.	.
=17	=17	=17	=17	=17	=17	=17	=17
2.B-\	ger-	2.d\	ger-	2.f\	ger-	2.dd\	ger-
4B-\	-mi-	4d\	-mi-	4f\	-mi-	4b-\	-mi-
=18	=18	=18	=18	=18	=18	=18	=18
2B-\	-net	2d\	-net	2f\	-net	2dd\	-net
2G\	sal-	2B-\	sal-	2g\	sal-	2ee-\	sal-
!LO:LB:g=original	!	!LO:LB:g=original	!	!	!	!	!
=19	=19	=19	=19	=19	=19	=19	=19
2A-X\	.	2c\	.	4e-\	.	1ee-	-va-
.	.	.	.	4f\	.	.	.
2G\	-va-	2B-\	-va-	2g\	-va-	.	.
!	!	!	!	!LO:LB:g=original	!	!LO:LB:g=original	!
=20	=20	=20	=20	=20	=20	=20	=20
2F\	-to-	2c\	-to-	1a-X	-to-	2ee-\	-to-
2BB-/	.	2d\	.	.	.	2dd\	.
=21	=21	=21	=21	=21	=21	=21	=21
2E-\	-rem	2e-\	-rem,	2g\	-rem	2b-\	-rem
[2AA-X/	Sal-	2c\	sal-	2e-\	sal-	2a-X\	sal-
=22	=22	=22	=22	=22	=22	=22	=22
2AA-/]	.	2d\	.	2f\	.	2.b-\	-va-
4GG/	.	2e-\	-va-	2g\	-va-	.	.
4AA-/	-va-	.	.	.	.	4cc\	.
=23	=23	=23	=23	=23	=23	=23	=23
1BB-	-to-	4e-\	-to-	1f	-to-	1b-	-to-
.	.	8d\L	.	.	.	.	.
.	.	8c\J	.	.	.	.	.
.	.	2d\	.	.	.	.	.
=24	=24	=24	=24	=24	=24	=24	=24
!	!	!	!	!	!	!LO:TX:a:t=2	!
0E-	-rem.	0e-	-rem.	0e-	-rem.	0g	-rem.
=25	=25	=25	=25	=25	=25	=25	=25
.	.	.	.	.	.	.	.
=26||	=26||	=26||	=26||	=26||	=26||	=26||	=26||
*M3/4	*	*M3/4	*	*M3/4	*	*M3/4	*
4E-\	Be-	4B-\	Be-	4g\	Be-	4ee-\	Be-
4D\	-ne-	4B-\	-ne-	4f\	-ne-	4b-\	-ne-
4E-\	-di-	4B-\	-di-	4g\	-di-	4ee-\	-di-
=27	=27	=27	=27	=27	=27	=27	=27
2D/	-xi-	2B-\	-xi-	2f\	-xi-	2b-\	-xi-
4BB-/	-sti	4B-\	-sti	4f\	-sti	4dd\	-sti
!LO:LB:g=original	!	!LO:LB:g=original	!	!	!	!	!
=28	=28	=28	=28	=28	=28	=28	=28
4.E-\	Do-	4.B-\	Do-	4.g\	Do-	4.ee-\	Do-
*8\right	*	*	*	*	*	*	*
8F\	-mi-	8A-\	-mi-	8f\	-mi-	8dd\	-mi-
4G\	-ne	4B-\	-ne	4e-\	-ne	4ee-\	-ne
!	!	!	!	!LO:LB:g=original	!	!LO:LB:g=original	!
=29	=29	=29	=29	=29	=29	=29	=29
4A-\	ter-	4c\	ter-	4e-\	ter-	4cc\	ter-
4F\	-ram	4c\	-ram	4e-\	-ram	4ff\	-ram
4B-\	tu-	4F/	tu-	4d\	tu-	4dd\	tu-
=30	=30	=30	=30	=30	=30	=30	=30
4E-\	-am	4G/	-am,	4e-\	-am,	4b-\	-am,
4r	.	4r	.	4r	.	4b-\	a-
4r	.	4r	.	4r	.	4a-X\	-ver-
=31	=31	=31	=31	=31	=31	=31	=31
4r	.	4r	.	4r	.	4g\	-tis-
4E-\	a-	4B-\	a-	4g\	a-	4b-\	-ti
4D\	-ver-	4Bn\	-ver-	4f\	-ver-	8dd\	a-
.	.	.	.	.	.	8dd\	-ver-
=32	=32	=32	=32	=32	=32	=32	=32
2C/	-tis-	2G/	-tis-	2e-\	-tis-	2g\	-tis-
4BBn/	-ti	4G/	-ti	4d/	-ti	4bn\	-ti
=33	=33	=33	=33	=33	=33	=33	=33
4C/	cap-	8G/L	cap-	4e-\	cap-	4ee-\	cap-
.	.	8A-X/J	.	.	.	.	.
4G\	-ti-	4B-\	-ti-	4e-\	-ti-	4b-X\	-ti-
4G\	-vi-	4B-\	-vi-	4e-\	-vi-	4ee-\	-vi-
=34	=34	=34	=34	=34	=34	=34	=34
4A-X\	-ta-	4c\	-ta-	4e-\	-ta-	4cc\	-ta-
4F\	.	4d\	.	4a-\	.	4f/	.
4E-\	-tem	4e-\	-tem	4g\	-tem	4b-\	-tem
!	!	!	!	!	!	!LO:LB:g=original	!
=35	=35	=35	=35	=35	=35	=35	=35
2B-\	Ja-	2d\	Ja-	2f\	Ja-	2b-\	Ja-
4BB-/	-cob	4d\	-cob	4f\	-cob,	4b-\	-cos
!LO:LB:g=original	!	!LO:LB:g=original	!	!LO:LB:g=original	!	!	!
=36	=36	=36	=36	=36	=36	=36	=36
4B-\	cap-	4F/	cap-	4d\	cap-	4b-\	cap-
4B-\	-ti-	4F/	-ti-	4d\	-ti-	4b-\	-ti-
4B-\	-vi-	4F/	-vi-	4d\	-vi-	4b-\	-vi-
=37	=37	=37	=37	=37	=37	=37	=37
4G\	-ta-	4G/	-ta-	4e-\	-ta-	4b-\	-ta-
4F\	.	4A-/	.	4f\	.	4a-X\	.
4E-\	-tem	4B-/	-tem	4g\	-tem	4g\	-tem
=38	=38	=38	=38	=38	=38	=38	=38
4A-\	Ja-	4c\	Ja-	2e-\	Ja-	4f/	Ja-
4B-\	.	2F/	.	.	.	2b-\	.
4BB-/	.	.	.	4d\	.	.	.
=39	=39	=39	=39	=39	=39	=39	=39
2.E-\	-cob,	2.G/	-cob.	2.e-\	-cob,	2.b-\	-cob,
=40||	=40||	=40||	=40||	=40||	=40||	=40||	=40||
4.C/	Glo-	4.e-\	Glo-	4.g\	Glo-	4.cc\	Glo-
8C/	-ri-	8e-\	-ri-	8g\	-ri-	8cc\	-ri-
4C/	-a	4e-\	-a	4g\	-a	4cc\	-a
=41	=41	=41	=41	=41	=41	=41	=41
4E-\	Pa-	4c\	Pa-	4g\	Pa-	4cc\	Pa-
4D\	-tri	4d\	-tri	4f\	-tri	4bn\	-tri
4C/	et	4e-\	et	4g\	et	4cc\	et
!	!	!	!	!	!	!LO:LB:g=original	!
=42	=42	=42	=42	=42	=42	=42	=42
4.G\	fi-	4.d\	fi-	4.g\	Fi-	4.bn\	fi-
8G\	-li-	8d\	-li-	8g\	-li-	8b\	-li-
4G\	-o	4d\	-o	4g\	-o	4b\	-us
!	!	!	!	!LO:LB:g=original	!	!	!
=43	=43	=43	=43	=43	=43	=43	=43
!LO:TX:a:t=4.	!	!	!	!	!	!	!
0.r	.	4r	.	4r	.	4r	.
.	.	4G/	et	4g\	et	4bn\	et
.	.	4An/	spi-	4f#X\	ſpi-	4b\	ſpi-
!	!	!LO:LB:g=original	!	!	!	!	!
=44	=44	=44	=44	=44	=44	=44	=44
.	.	4.Bn\	-ri-	4.g\	-ri-	4.dd\	-ri-
.	.	8An\	-tu-	8f#X\	-tu-	8cc\	-tu-
.	.	4G/	-i	4g\	-i	4bn\	-i
=45	=45	=45	=45	=45	=45	=45	=45
.	.	4c\	san-	4g\	san-	4ee-\	ſan-
.	.	4d\	.	4fn\	.	4bn\	.
.	.	4e-\	-cto	4e-\	-cto	4cc\	-cto
=46	=46	=46	=46	=46	=46	=46	=46
.	.	4f\	san-	8a-\L	san-	2cc\	san-
.	.	.	.	8d\J	.	.	.
.	.	4g\	.	2d\	.	.	.
.	.	4G/	.	.	.	4bn\	.
!LO:LB:g=original	!	!	!	!	!	!	!
=47	=47	=47	=47	=47	=47	=47	=47
4r	.	4c\	-cto,	4e-X\	-cto,	4cc\	-cto,
4C/	et	4en\	et	4g\	et	4cc\	et
4D/	spi-	4d\	spi-	4fn\	spi-	4bn\	ſpi-
=48	=48	=48	=48	=48	=48	=48	=48
4.En\	-ri-	4.c\	-ri-	4.g\	-ri-	4.cc\	-ri-
8D\	-tu-	8dn\	-tu-	8f\	-tu-	8bn\	-tu-
4C/	-i	4en\	-i	4g\	-i	4cc\	-i
!	!	!	!	!	!	!LO:LB:g=original	!
=49	=49	=49	=49	=49	=49	=49	=49
4F\	san-	4f\	san-	4a-X\	san-	4cc\	san-
4G\	.	2e-X\	.	8g\L	.	4bn\	.
.	.	.	.	8f\J	.	.	.
4A-X\	-cto	.	.	4e-\	-cto	4cc\	-cto
!	!	!	!	!LO:LB:g=original	!	!	!
=50	=50	=50	=50	=50	=50	=50	=50
4F\	san-	8f\L	.	4a-X\	san-	8dd\L	san-
.	.	8e-\J	.	.	.	8cc\J	.
4G\	.	2d\	.	2g\	.	4cc\	.
4GG/	.	.	.	.	.	4bn\	.
=51	=51	=51	=51	=51	=51	=51	=51
4C/	-cto,	4en\	-cto,	4g\	-cto,	4cc\	-cto,
!	!	!LO:LB:g=original	!	!	!	!	!
=-	=-	=-	=-	=-	=-	=-	=-
8c\	si-	8e-X\	si-	8g\	si-	8cc\	si-
8c\	-cut	8e-\	-cut	8g\	-cut	8cc\	-cut
8c\	e-	8e-\	e-	8g\	e-	8cc\	e-
8c\	-rat	8e-\	-rat	8g\	-rat	8cc\	-rat
=52	=52	=52	=52	=52	=52	=52	=52
2A-X\	in	4c\	in	2a-X\	in	4ee-X\	in
.	.	4A-X\	.	.	.	4cc\	.
4F\	prin-	4c\	prin-	4a-\	prin-	4ee-\	prin-
=53	=53	=53	=53	=53	=53	=53	=53
4.B-\	-ci-	4.B-\	-ci-	4.f\	-ci-	4.dd\	-ci-
8B-\	-pi-	8B-\	-pi-	8f\	-pi-	8dd\	-pi-
4G\	-o	4B-\	-o	4g\	-o	4ee-\	-o
!LO:LB:g=original	!	!	!	!	!	!	!
=54	=54	=54	=54	=54	=54	=54	=54
4A-X\	et	4c\	et	4e-\	et	4ee-\	et
4F\	nunc	4c\	nunc	4a-X\	nunc	4ee-\	nunc
4B-\	et	4B-\	et	4a-\	et	4dd\	et
!	!	!	!	!	!	!LO:LB:g=original	!
=55	=55	=55	=55	=55	=55	=55	=55
4G\	sem-	4B-\	sem-	4g\	sem-	4ee-\	sem-
4F\	-per	4c\	-per	4a-X\	-per	4dd\	-per,
8E-\	et	8B-\	et	8g\	et	8ee-\	et
8E-\	in	8B-\	in	8g\	in	8ee-\	in
=56	=56	=56	=56	=56	=56	=56	=56
4.B-\	se-	4.B-\	se-	8f\L	se-	8dd\L	se-
.	.	.	.	8g\J	.	8ee-\J	.
!	!	!	!	!LO:LB:g=original	!	!	!
=-	=-	=-	=-	=-	=-	=-	=-
.	.	.	.	8f\L	.	8dd\L	-cu-
8B-\	-cu-	8B-\	-cu-	8e-\J	.	8cc\J	.
4B-\	-la	4B-\	-la	8d\L	-cu-	8b-\L	-la
.	.	.	.	8g\J	.	8ee-\J	.
=57	=57	=57	=57	=57	=57	=57	=57
8B-\L	se-	2.B-\	se-	2f\	-lo-	2.dd\	se-
8c\	.	.	.	.	.	.	.
8B-\	.	.	.	.	.	.	.
8A-\	.	.	.	.	.	.	.
8G\	.	.	.	8g\L	-rum	.	.
8F\J	.	.	.	8a-\J	.	.	.
!	!	!LO:LB:g=original	!	!	!	!	!
=58	=58	=58	=58	=58	=58	=58	=58
8G\L	.	2Bn\	.	2g\	a-	2dd\	.
8A-\	.	.	.	.	.	.	.
8G\	.	.	.	.	.	.	.
8F\J	.	.	.	.	.	.	.
8E-\L	-cu-	8c\L	-cu-	8g\L	-men	8ee-\L	-cu-
8D\J	.	8B\J	.	8f\J	.	8ff\J	.
=59	=59	=59	=59	=59	=59	=59	=59
4C/	-lo-	4c\	-lo-	4g\	a-	4ee-\	-lo-
4D/	.	4Bn\	.	4f\	.	4dd\	.
4E-/	-rum	4c\	-rum	4g\	-men	4cc\	-rum
!LO:LB:g=original	!	!	!	!	!	!	!
=60	=60	=60	=60	=60	=60	=60	=60
4F\	a-	4d\	a-	4a-X\	a-	2cc\	a-
4G\	.	2d\	.	2g\	.	.	.
4GG/	.	.	.	.	.	4bn\	.
=61	=61	=61	=61	=61	=61	=61	=61
2.C/	-men.	2.en\	-men.	2.g\	-men.	2.cc\	-men.
==	==	==	==	==	==	==	==
*-	*-	*-	*-	*-	*-	*-	*-
!!!system-decoration: [(s1,s2,s3,s4)]
!!!ENC: Andrzej Gręziak
!!!END: 2023-11-05
!!!EED: Marta Chmielewska
!!!EEV: 2023-11-26
